src/lib/packages/icons/src/assets/line/arrow-up-left-circle.svg

<svg width="24" height="24" viewBox="0 0 24 24" fill="none" xmlns="http://www.w3.org/2000/svg">
<path d="M12 1.25C6.072 1.25 1.25 6.072 1.25 12C1.25 17.928 6.072 22.75 12 22.75C17.928 22.75 22.75 17.928 22.75 12C22.75 6.072 17.928 1.25 12 1.25ZM12 21.25C6.899 21.25 2.75 17.101 2.75 12C2.75 6.899 6.899 2.75 12 2.75C17.101 2.75 21.25 6.899 21.25 12C21.25 17.101 17.101 21.25 12 21.25ZM15.53 14.47C15.823 14.763 15.823 15.238 15.53 15.531C15.384 15.677 15.192 15.751 15 15.751C14.808 15.751 14.616 15.678 14.47 15.531L9.75 10.811V13C9.75 13.414 9.414 13.75 9 13.75C8.586 13.75 8.25 13.414 8.25 13V9C8.25 8.902 8.27011 8.80489 8.30811 8.71289C8.38411 8.52989 8.53011 8.38388 8.71411 8.30688C8.80611 8.26888 8.90298 8.24902 9.00098 8.24902H13.001C13.415 8.24902 13.751 8.58502 13.751 8.99902C13.751 9.41302 13.415 9.74902 13.001 9.74902H10.812L15.53 14.47Z" fill="currentColor"/>
</svg>

<svg xmlns="http://www.w3.org/2000/svg" width="24" height="24" fill="none"><path fill="currentColor" d="M12 1.25C6.072 1.25 1.25 6.072 1.25 12S6.072 22.75 12 22.75 22.75 17.928 22.75 12 17.928 1.25 12 1.25Zm0 20c-5.101 0-9.25-4.149-9.25-9.25S6.899 2.75 12 2.75s9.25 4.149 9.25 9.25-4.149 9.25-9.25 9.25Zm3.53-6.78a.75.75 0 0 1-1.06 1.061l-4.72-4.72V13a.75.75 0 0 1-1.5 0V9a.751.751 0 0 1 .751-.751h4a.75.75 0 0 1 0 1.5h-2.189l4.718 4.721Z"/></svg>
